src/assets/filled/Devices1.svg

<svg width="24" height="24" viewBox="0 0 24 24"  xmlns="http://www.w3.org/2000/svg">
<path d="M20 6V6.24H14.87C11.9 6.24 10.52 7.62 10.52 10.59V15.7H9.75V19.25H10.52V20.75H4.95C4.54 20.75 4.2 20.41 4.2 20C4.2 19.59 4.54 19.25 4.95 19.25H8.25V15.7H6C2.87 15.7 2.03 14.93 2 11.9V6C2 2.8 2.8 2 6 2H16C19.2 2 20 2.8 20 6Z" />
<path d="M20 7.79023C19.75 7.76023 19.46 7.74023 19.15 7.74023H14.87C12.73 7.74023 12.02 8.45023 12.02 10.5902V19.2502C12.03 19.8702 12.1 20.3602 12.25 20.7502C12.6 21.6602 13.39 22.0002 14.87 22.0002H19.15C21.29 22.0002 22 21.2902 22 19.1502V10.5902C22 8.76023 21.48 7.98023 20 7.79023ZM17.01 10.0902C17.88 10.0902 18.58 10.7902 18.58 11.6602C18.58 12.5302 17.88 13.2302 17.01 13.2302C16.14 13.2302 15.44 12.5302 15.44 11.6602C15.44 10.7902 16.14 10.0902 17.01 10.0902ZM17.01 19.1502C15.83 19.1502 14.87 18.1902 14.87 17.0102C14.87 16.5202 15.04 16.0602 15.32 15.7002C15.71 15.2002 16.32 14.8702 17.01 14.8702C17.55 14.8702 18.04 15.0702 18.41 15.3902C18.86 15.7902 19.15 16.3702 19.15 17.0102C19.15 18.1902 18.19 19.1502 17.01 19.1502Z" />
<path d="M20 7.79023C19.75 7.76023 19.46 7.74023 19.15 7.74023H14.87C12.73 7.74023 12.02 8.45023 12.02 10.5902V19.2502C12.03 19.8702 12.1 20.3602 12.25 20.7502C12.6 21.6602 13.39 22.0002 14.87 22.0002H19.15C21.29 22.0002 22 21.2902 22 19.1502V10.5902C22 8.76023 21.48 7.98023 20 7.79023ZM17.01 10.0902C17.88 10.0902 18.58 10.7902 18.58 11.6602C18.58 12.5302 17.88 13.2302 17.01 13.2302C16.14 13.2302 15.44 12.5302 15.44 11.6602C15.44 10.7902 16.14 10.0902 17.01 10.0902ZM17.01 19.1502C15.83 19.1502 14.87 18.1902 14.87 17.0102C14.87 16.5202 15.04 16.0602 15.32 15.7002C15.71 15.2002 16.32 14.8702 17.01 14.8702C17.55 14.8702 18.04 15.0702 18.41 15.3902C18.86 15.7902 19.15 16.3702 19.15 17.0102C19.15 18.1902 18.19 19.1502 17.01 19.1502Z" />
</svg>

<?xml version="1.0" encoding="UTF-8"?>
<svg width="24" height="24" viewBox="0 0 24 24" xmlns="http://www.w3.org/2000/svg">
 <path d="m20 6v0.24h-5.13c-2.97 0-4.35 1.38-4.35 4.35v5.11h-0.77v3.55h0.77v1.5h-5.57c-0.41 0-0.75-0.34-0.75-0.75s0.34-0.75 0.75-0.75h3.3v-3.55h-2.25c-3.13 0-3.97-0.77-4-3.8v-5.9c0-3.2 0.8-4 4-4h10c3.2 0 4 0.8 4 4z"/>
 <path d="m20 7.7902c-0.25-0.03-0.54-0.05-0.85-0.05h-4.28c-2.14 0-2.85 0.71-2.85 2.85v8.66c0.01 0.62 0.08 1.11 0.23 1.5 0.35 0.91 1.14 1.25 2.62 1.25h4.28c2.14 0 2.85-0.71 2.85-2.85v-8.56c0-1.83-0.52-2.61-2-2.8zm-2.99 2.3c0.87 0 1.57 0.7 1.57 1.57s-0.7 1.57-1.57 1.57-1.57-0.7-1.57-1.57 0.7-1.57 1.57-1.57zm0 9.06c-1.18 0-2.14-0.96-2.14-2.14 0-0.49 0.17-0.95 0.45-1.31 0.39-0.5 1-0.83 1.69-0.83 0.54 0 1.03 0.2 1.4 0.52 0.45 0.4 0.74 0.98 0.74 1.62 0 1.18-0.96 2.14-2.14 2.14z"/>
 <path d="m20 7.7902c-0.25-0.03-0.54-0.05-0.85-0.05h-4.28c-2.14 0-2.85 0.71-2.85 2.85v8.66c0.01 0.62 0.08 1.11 0.23 1.5 0.35 0.91 1.14 1.25 2.62 1.25h4.28c2.14 0 2.85-0.71 2.85-2.85v-8.56c0-1.83-0.52-2.61-2-2.8zm-2.99 2.3c0.87 0 1.57 0.7 1.57 1.57s-0.7 1.57-1.57 1.57-1.57-0.7-1.57-1.57 0.7-1.57 1.57-1.57zm0 9.06c-1.18 0-2.14-0.96-2.14-2.14 0-0.49 0.17-0.95 0.45-1.31 0.39-0.5 1-0.83 1.69-0.83 0.54 0 1.03 0.2 1.4 0.52 0.45 0.4 0.74 0.98 0.74 1.62 0 1.18-0.96 2.14-2.14 2.14z"/>
</svg>
